X: 27
T: Josie-O
B: canberra pickers and fiddlers
B: tunes
M:2/4
L:1/8
Q: 1/4=100
K:G
V:1 
ed B/A/B/d/|ed g>d|ed B/A/G/B/|1 A G2 (3B/c/d/:|2 A G3||
|:DG BB/B/|AB d>d|ed B/A/G/B/|AF G2:|
|:gg g>a|b>a bg-|gg a/b/a/g/|ed d2:|]
% abcbook-tune_id 63da59341072f8f38295c460
% abcbook-tune_composer_id 
% abcbook-link-0 https://www.youtube.com/watch?v=xeKoni7mjGo
% abcbook-boost 8
% abcbook-difficulty 0
% abcbook-tags canberra pickers and fiddlers,old time tunes,© free
% abcbook-tablature 
% abcbook-transpose 
% abcbook-tuning GDAD
% abcbook-lastupdated 1739244075017
% abcbook-src-url https://tunebook.net/scrape/tunes.abc
% abcbook-soundfonts 
% abcbook-repeats 1
%%gchordfont "itim-music,Itim" 20

